icon-themes/sifr_svg/cmd/de/sc_bold.svg

<svg viewBox="0 0 16 16" xmlns="http://www.w3.org/2000/svg"><path d="m10 1c-1.6568542 0-3 1.3431458-3 3v2l-2 1v1h2v4c0 .552285-.4477153 1-1 1s-1-.447715-1-1h-1v2.220703c.5316543.479085 1.2279835.779297 2 .779297 1.6568542 0 3-1.343146 3-3v-4l2-1v-1h-2v-2c0-.5522847.447715-1 1-1s1 .4477153 1 1h1v-2.2207031c-.531654-.4790849-1.227984-.7792969-2-.7792969z" fill="#555753"/></svg>

<svg xmlns="http://www.w3.org/2000/svg" viewBox="0 0 16 16">
  <path
     style="fill:#555753"
     d="M 10,1 C 8.3431458,1 7,2.3431458 7,4 V 6 L 5,7 v 1 h 2 v 4 C 7,12.552285 6.5522847,13 6,13 5.4477153,13 5,12.552285 5,12 H 4 v 2.220703 C 4.5316543,14.699788 5.2279835,15 6,15 7.6568542,15 9,13.656854 9,12 V 8 L 11,7 V 6 H 9 V 4 c 0,-0.5522847 0.447715,-1 1,-1 0.552285,0 1,0.4477153 1,1 h 1 V 1.7792969 C 11.468346,1.300212 10.772016,1 10,1 Z"
     />
</svg>
